!!!ONB: MCCC : IFC0055_02 : Extracted Monophonic Melody
!!!COM: Chopin, Frédéric
!!!OPR: Mazurkas
!!!OMV: 2
!!!SCT: Op.56
!!!ODT: 1843///
**kern
*thru
*staff1
*Ipiano
*k[b-e-a-d-]
*A-:
*M3/4
*>A
4e-
2f
=1
4e-
2g
=2
4e-
2f
=3
4e-
2b-
=4
4e-
2f
=5
4e-
2dd-
=6
4cc
2b-[
=7
2b-]
4b
=8
8cc
8dd-
4.ee-
8ff
=9
8ee-
8dd
4.dd-
8cc
=10
8b-
8a
8b-
8cc
4g
=11
8a-
16r
16g
4a-
4c
=12
8a-
8b-
4.cc
8dd-
=13
8cc
8b
4.b-
8a-
=14
8g
8f
8g
8a-
4e
=15
2f
4e-
=16
8cc
8dd-
4ee-
8gg
8ff
=17
8ee-
8dd
4.dd-
8cc
=18
8b-
8a
8b-
8cc
4g
=19
8a-
16r
16g
4a-
4e
=20
8.f
16g
4a-
4b-
=21
8.cc
16dd-
4.cc
8g
=22
8f
8e
8f
8g
8a-
8b-
=23
8cc
8dd-
4.cc
8b
=24
12b-
12cc
12b-
8a
8b-
8cc
8dd-
=25
8ff
8ee-
2aa-
=26
8a
8b-
8gg
8ff
8ee-
8e-
=27
8dd-
8cc
2a-
=28
4g
4.cc
8b-
=29
8.a-
16g
4a-
4f
=30
8e
8f
4g
8a-
8g
=31
8f
8e
4f
4d
=32
8.g
16c
4.cc
8b-
=33
8.a-
16g
4a-
4f
=34
8e
8f
4g
8ee
8dd
=35
8.cc
16b
2cc
=36
8.cc
16b
2cc
=37
8.cc
16b
4.cc
8b
=38
8cc
8b
4cc
4b
=39
8cc
8dd-
4.ee-
8ff
=40
8ee-
8dd
4.dd-
8cc
=41
8b-
8a
8b-
8cc
4g
=42
8a-
16r
16g
4a-
4c
=43
8a-
8b-
4.cc
8dd-
=44
8cc
8b
4.b-
8a-
=45
8g
8f
8g
8a-
4e
=46
2f
4e-
=47
8cc
8dd-
4ee-
8gg
8ff
=48
8ee-
8dd
4.dd-
8cc
=49
8b-
8a
8b-
8cc
4g
=50
8a-
16r
16g
4a-
4e
=51
8.f
16g
4a-
4b-
=52
8.cc
16dd-
4.cc
8g
=53
8f
8e
8f
8g
8a-
8b-
=54
8cc
8dd-
4.cc
8b
=55
12b-
12cc
12b-
8a
8b-
8cc
8dd-
=56
8ff
8ee-
2aa-
=57
8a
8b-
8gg
8ff
8ee-
8e-
=58
8dd-
8cc
4a-
4g-
=59
*>B
*k[b-e-a-d-g-]
*D-:
8f
16r
16f
4f
4g-
=60
8e-
16r
16d
4e-
4f
=61
8g-
16r
16f
4g-
4g
=62
8b-
16r
16b-
4b-
4a-
=63
8f
16r
16f
4f
4g-
=64
8e-
16r
16d
4e-
4f
=65
8g-
16r
16a-
4b-
4cc
=66
8ee-
16r
16ee-
4ee-
4dd-
=67
*>B
8f
16r
16f
4f
4g-
=68
8e-
16r
16d
4e-
4f
=69
8g-
16r
16f
4g-
4g
=70
8b-
16r
16b-
4b-
4a-
=71
8f
16r
16f
4f
4g-
=72
8e-
16r
16d
4e-
4f
=73
8g-
16r
16a-
4b-
4cc
=74
8ee-
16r
16ee-
4ee-
4dd-[
=75
*>C
8dd-]
16r
16dd-
4dd-
4ee-
=76
8cc
16r
16b
4cc
4f
=77
8b-
16r
16b-
4b-
4cc
=78
8a-
16r
16g
4a-
4f
=79
8dd-
16r
16dd-
4dd-
4ee-
=80
8cc
16r
16b
4cc
4f
=81
8b-
16r
16b-
4b-
4cc
=82
8a-
16r
16g
4a-
4e-
=83
8f
16r
16f
4f
4g-
=84
8e-
16r
16d
4e-
4f
=85
8g-
16r
16f
4g-
4g
=86
8b-
16r
16b-
4b-
4a-
=87
8f
16r
16f
4f
4g-
=88
8e-
16r
16d
4e-
4f
=89
8g-
16r
16a-
4b-
4cc
=90
8ee-
16r
16ee-
4ee-
4dd-[
=91
*>C
8dd-]
16r
16dd-
4dd-
4ee-
=92
8cc
16r
16b
4cc
4f
=93
8b-
16r
16b-
4b-
4cc
=94
8a-
16r
16g
4a-
4f
=95
8dd-
16r
16dd-
4dd-
4ee-
=96
8cc
16r
16b
4cc
4f
=97
8b-
16r
16b-
4b-
4cc
=98
8a-
16r
16g
4a-
4e-
=99
8f
16r
16f
4f
4g-
=100
8e-
16r
16d
4e-
4f
=101
8g-
16r
16f
4g-
4g
=102
8b-
16r
16b-
4b-
4a-
=103
8f
16r
16f
4f
4g-
=104
8e-
16r
16d
4e-
4f
=105
8g-
16r
16a-
4b-
4cc
=106
8ee-
16r
16ee-
4ee-
4dd-
=107
*>D
*k[b-e-a-d-]
8cc
8dd-
4.ee-
8ff
=108
8ee-
8dd
4.dd-
8cc
=109
8b-
8a
8b-
8cc
4g
=110
8a-
16r
16g
4a-
4c
=111
8a-
8b-
4.cc
8dd-
=112
8cc
8b
4.b-
8a-
=113
8g
8f
8g
8a-
4e
=114
2f
4e-
=115
8cc
8dd-
4ee-
8gg
8ff
=116
8ee-
8dd
4.dd-
8cc
=117
8b-
8a
8b-
8cc
4g
=118
8a-
16r
16g
4a-
4e
=119
8.f
16g
4a-
4b-
=120
8.cc
16dd-
4.cc
8g
=121
8f
8e
8f
8g
8a-
8b-
=122
8cc
8dd-
4.cc
8b
=123
12b-
12cc
12b-
8a
8b-
8cc
8dd-
=124
8ff
8ee-
2aa-
=125
8a
8b-
8gg
8ff
8ee-
8e-
=126
8dd-
8cc
4a-
4r
==
*-
